material/.icons/material/format-letter-ends-with.svg

<svg xmlns="http://www.w3.org/2000/svg" viewBox="0 0 24 24"><path d="M11.14 4L6.43 16h1.93l.96-2.57h5.35l.97 2.57h1.93L12.86 4M12 6.29l2.03 5.42H9.96M20 14v4H2v2h20v-6z"/></svg>

<?xml version="1.0" encoding="UTF-8"?><!DOCTYPE svg PUBLIC "-//W3C//DTD SVG 1.1//EN" "http://www.w3.org/Graphics/SVG/1.1/DTD/svg11.dtd"><svg xmlns="http://www.w3.org/2000/svg" xmlns:xlink="http://www.w3.org/1999/xlink" version="1.1" id="mdi-format-letter-ends-with" width="24" height="24" viewBox="0 0 24 24"><path d="M11.14 4L6.43 16H8.36L9.32 13.43H14.67L15.64 16H17.57L12.86 4M12 6.29L14.03 11.71H9.96M20 14V18H2V20H22V14Z" /></svg>
